!!!COM: Beethoven, Ludwig van
!!!CDT: 1770///-1827///
!!!ODT: 1798///-1800///
!!!OTL: String Quartet No. 3 in D Major, Op. 18, No. 3
!!!OPS: Op. 18
!!!ONM: No. 3
!!!OMV: Mvmt. 2
!!!OMD: Andante con moto
!!!PDT: 1801///
!!!PPP: Vienna
!!!PPR: C. Haslinger qm Tobias
!!!ODE: Dem F&uuml;rsten von Lobkowitz gewidmet
!!!MPD: 1798///-1800///
**kern	**dynam	**kern	**dynam	**kern	**dynam	**kern	**dynam
*staff4	*staff4	*staff3	*staff3	*staff2	*staff2	*staff1	*staff1
*Icello	*Icello	*Iviola	*Iviola	*Ivioln	*Ivioln	*Ivioln	*Ivioln
*clefF4	*clefF4	*clefC3	*clefC3	*clefG2	*clefG2	*clefG2	*clefG2
*k[b-e-]	*k[b-e-]	*k[b-e-]	*k[b-e-]	*k[b-e-]	*k[b-e-]	*k[b-e-]	*k[b-e-]
*B-:	*B-:	*B-:	*B-:	*B-:	*B-:	*B-:	*B-:
*M2/4	*M2/4	*M2/4	*M2/4	*M2/4	*M2/4	*M2/4	*M2/4
*MM54	*MM54	*MM54	*MM54	*MM54	*MM54	*MM54	*MM54
=1-	=1-	=1-	=1-	=1-	=1-	=1-	=1-
(4BB-/	p	4F/	p	8B-/L	p	4B-/	p
.	.	.	.	8d/	.	.	.
8AA/L	.	8F/L	.	8e-/	.	8c/L	.
8BB-/J)	.	8F/J	.	8d/J	.	8B-/J	.
=2	=2	=2	=2	=2	=2	=2	=2
(8.FF/L	.	4F/	.	8c/L	.	4A/	.
.	.	.	.	8e-/	.	.	.
16C/k	.	.	.	.	.	.	.
8BBn/	.	8F/L	.	8f/	.	8G#/L	.
8C/J)	.	8F/J	.	8e-/J	.	8A/J	.
=3	=3	=3	=3	=3	=3	=3	=3
(8.FF/L	.	(4F/	.	8d/L	.	4B-/	.
.	.	.	.	8f/	.	.	.
16D/k	.	.	.	.	.	.	.
8C#/	.	8E-/L	.	8g/	.	8B-/L	.
8D/J)	.	8F/J)	.	8f/J	.	8B-/J	.
=4	=4	=4	=4	=4	=4	=4	=4
(4C/	.	(8G/L	.	16f/LL	.	8B-/	.
.	.	.	.	16en/	.	.	.
.	.	[8B-/J)	.	16d/	.	8r	.
.	.	.	.	16c/JJ	.	.	.
4F\)	.	16B-/LL]	.	8.f/L	.	4r	.
.	.	(16A/	.	.	.	.	.
.	.	16G/	.	.	.	.	.
.	.	16F/JJ)	.	16e-/Jk	.	.	.
=5	=5	=5	=5	=5	=5	=5	=5
(4BB-/	.	8F/	.	16e-/LL	.	8b-\L	.
.	.	.	.	16d/	.	.	.
.	.	4f\	.	16c/	.	8dd\	.
.	.	.	.	16B-/JJ	.	.	.
8C/L	.	.	.	8A/L	.	8ee-\	.
8BB-/J)	.	8f\	.	8B-/J	.	8dd\J	.
=6	=6	=6	=6	=6	=6	=6	=6
8FF/L	.	(4a\	.	16f/LL	.	8cc\L	.
.	.	.	.	16e-/	.	.	.
8F/	.	.	.	16d/	.	8ee-\	.
.	.	.	.	16c/JJ	.	.	.
8F/	.	8g#\L	.	8Bn/L	.	8ff\	.
8F/J	.	8a\J)	.	8c/J	.	8ee-\J	.
=7	=7	=7	=7	=7	=7	=7	=7
8FF/L	.	4.b-\	.	16g/LL	.	8dd\L	.
.	.	.	.	16f/	.	.	.
8F/	.	.	.	16e-/	.	8ff\	.
.	.	.	.	16d/JJ	.	.	.
8F/	.	.	.	8c#/L	.	8gg\	.
8F/J	.	8b-\	.	8d/J	.	8ff\J	.
=8	=8	=8	=8	=8	=8	=8	=8
(4C/	.	(8g\L	.	[4b-\	.	16ff\LL	.
.	.	.	.	.	.	16een\	.
.	.	8en\	.	.	.	16dd\	.
.	.	.	.	.	.	16cc\JJ	.
4F\)	.	8c\	.	16b-/LL]	.	8.ff\L	.
.	.	.	.	16a/	.	.	.
.	.	8A\J)	.	16g/	.	.	.
.	.	.	.	16f/JJ	.	16ee-\Jk	.
=9	=9	=9	=9	=9	=9	=9	=9
(4BB-/	.	(8f\L	.	[4a-/	.	16ee-\LL	.
.	.	.	.	.	.	16dd\	.
.	.	8d\	.	.	.	16cc\	.
.	.	.	.	.	.	16b-\JJ	.
[4E-\)	.	8B-\	.	16a-/LL]	.	8.ee-\L	.
.	.	.	.	16g/	.	.	.
.	.	8G\J)	.	16f/	.	.	.
.	.	.	.	16e-/JJ	.	16cc\Jk	.
=10	=10	=10	=10	=10	=10	=10	=10
8E-\L]	<	(8f\L	<	8c/	.	16.b-\LL	<
.	.	.	.	.	.	32a\k	<
(8D\J	<	[8B-\J)	<	4f/	<	16.cc\	.
.	.	.	.	.	.	32b-\JJk	.
8C/L	.	16.B-/LL]	.	.	.	16.dd\LL	.
.	.	(32A/k	.	.	.	32cc\k	.
8BB-/J)	.	16.c/	.	8f/	.	16.ee-\	.
.	.	32B-/JJk)	.	.	.	32dd\JJk	.
=11	=11	=11	=11	=11	=11	=11	=11
(8.D\L	.	(16.d\LL	.	16.f/LL	.	16.ff\LL	.
.	.	32c\JJk)	.	32e-/JJk	.	32ee-\JJk	.
.	.	(4B-/	.	4d/	.	4dd\	.
&(16En\Jk&))	.	.	.	.	.	.	.
8F/L	.	.	.	.	.	.	.
8FF/J	.	16.c/LL	.	16.e-/LL	.	16.ee-\LL	.
.	.	32A/JJk)	.	32c/JJk	.	32cc\JJk	.
=12	=12	=12	=12	=12	=12	=12	=12
8BB-\L	p	8B-/	p	8B-/	p	8b-\	p
8B-\J	.	8r	.	8r	.	8r	.
4r	.	4r	.	4r	.	32dd\LLL	.
.	.	.	.	.	.	32ee-\	.
.	.	.	.	.	.	32ff\	.
.	.	.	.	.	.	32gg\	.
.	.	.	.	.	.	32aa\	.
.	.	.	.	.	.	32bb-\	.
.	.	.	.	.	.	32ccc\	.
.	.	.	.	.	.	32ddd\JJJ	.
=13	=13	=13	=13	=13	=13	=13	=13
2r	.	(8a\L	.	8cc\L	.	16.fff\LL	.
.	.	.	.	.	.	32eee-\Jk	.
.	.	16b-\Jk)	.	16b-\Jk	.	8ddd\J	.
.	.	16r	.	16r	.	.	.
.	.	(8e-\L	.	8gg\L	.	16.ddd\LL	.
.	.	.	.	.	.	32ccc\Jk	.
.	.	16en\Jk)	.	16gg\Jk	.	8bb-\J	.
.	.	16r	.	16r	.	.	.
=14	=14	=14	=14	=14	=14	=14	=14
4r	.	8f\	.	8cc\	.	32aa\LLL	.
.	.	.	.	.	.	32gg\	.
.	.	.	.	.	.	32aa\	.
.	.	.	.	.	.	32bb-\JJ	.
.	.	8r	.	8r	.	8ccc\J	.
(32BB-\LLL	p	(32D/LLL	.	4r	.	4r	.
32C\	.	32E-/	.	.	.	.	.
32D\	.	32F/	.	.	.	.	.
32E-\	.	32G/	.	.	.	.	.
32F\	.	32A/	.	.	.	.	.
32G\	.	32B-/	.	.	.	.	.
32A\)	.	32c/	.	.	.	.	.
32B-\JJJ	.	32d/JJJ)	.	.	.	.	.
=15	=15	=15	=15	=15	=15	=15	=15
(8A\L	.	(16.f\LL	.	4r	.	2r	.
.	.	32e-\Jk)	.	.	.	.	.
16B-\Jk)	.	8d\J	.	.	.	.	.
16r	.	.	.	.	.	.	.
(8F#\L	.	(8a\L	.	16.dd\LL	.	.	.
.	.	.	.	32cc\Jk	.	.	.
16G\Jk)	.	16d\Jk)	.	8b-\J	.	.	.
16r	.	16r	.	.	.	.	.
=16	=16	=16	=16	=16	=16	=16	=16
(8En\L	<	(8g\L	.	16.cc\LL	<	16.ccc\LL	<
.	.	.	.	32b-\k	<	32bb-\k	<
8F\	<	8c\)	<	16.a\	.	16.aa\	.
.	.	.	.	32b-\JJk	.	32bb-\JJk	.
8BB-\	.	8d\	.	16.g/LL	.	16.gg\LL	.
.	.	.	.	32a/k	.	32aa\k	.
8BBn\J)	.	8d\J	.	16.f/	.	16.ff\	.
.	.	.	.	32g/JJk	.	32gg\JJk	.
=17	=17	=17	=17	=17	=17	=17	=17
8C/	p	16G/LL	p	16en/LK	p	8een\	p
.	.	16C/	.	8c/	.	.	.
8r	.	16En/	.	.	.	8r	.
.	.	16C/JJ	.	16c/Jk	.	.	.
4r	.	16F/LL	.	32Bn/LLL	.	4r	.
.	.	.	.	32c/	.	.	.
.	.	16C/	.	32d/	.	.	.
.	.	.	.	32en/	.	.	.
.	.	16F/	.	32f/	.	.	.
.	.	.	.	32d/	.	.	.
.	.	16C/JJ	.	32c/	.	.	.
.	.	.	.	32Bn/JJJ	.	.	.
=18	=18	=18	=18	=18	=18	=18	=18
16CC/LL	.	(16En/LL	.	16.g/LL	.	[8gg\L	.
16C/	.	16G/	.	.	.	.	.
.	.	.	.	32en/Jk	.	.	.
16En/	.	16c/	.	8c/J	.	32gg\LL]	.
.	.	.	.	.	.	32eeen\	.
16C/JJ	.	16en/JJ)	.	.	.	32ddd\	.
.	.	.	.	.	.	32ccc\JJJ	.
16F\LL	.	16g\LL	.	4r	.	32ccc\LLL	.
.	.	.	.	.	.	32bbn\	.
16C\	.	16g\	.	.	.	32bbn\	.
.	.	.	.	.	.	32fff\JJJ	.
16F\	.	16g\	.	.	.	32fff\LLL	.
.	.	.	.	.	.	32ddd\	.
16C\JJ	.	16g\JJ	.	.	.	32ddd\	.
.	.	.	.	.	.	32bbn\JJJ	.
=19	=19	=19	=19	=19	=19	=19	=19
8C/	.	16en\LL	.	[8cc\L	.	32ccc\LLL	.
.	.	.	.	.	.	32bbn\	.
.	.	16c\	.	.	.	32ccc\	.
.	.	.	.	.	.	32ddd\JJ	.
8r	.	16en\	.	32cc\LL]	.	8eee-\J	.
.	.	.	.	32een\	.	.	.
.	.	16c\JJ	.	32dd\	.	.	.
.	.	.	.	32cc\JJJ	.	.	.
4r	.	16f\LL	.	32bn\LLL	.	4r	.
.	.	.	.	32cc\	.	.	.
.	.	16c\	.	32dd\	.	.	.
.	.	.	.	32een\	.	.	.
.	.	16f\	.	32ff\	.	.	.
.	.	.	.	32dd\	.	.	.
.	.	16c\JJ	.	32cc\	.	.	.
.	.	.	.	32bn\JJJ	.	.	.
=20	=20	=20	=20	=20	=20	=20	=20
16CC/LL	.	(16En/LL	.	16.gg\LL	.	[8ggg\L	.
16C/	.	16G/	.	.	.	.	.
.	.	.	.	32een\Jk	.	.	.
16En/	.	16c/	.	8cc\	.	32ggg\LL]	.
.	.	.	.	.	.	32eeen\	.
16C/JJ	.	16en/JJ)	.	.	.	32ddd\	.
.	.	.	.	.	.	32ccc\JJJ	.
16F\LL	.	16g\LL	.	16r	.	32ccc\LLL	.
.	.	.	.	.	.	32bbn\	.
16C\	.	16g\	.	16f\L	.	32bbn\	.
.	.	.	.	.	.	32fff\JJJ	.
16F\	.	16g\	.	16f\	.	32fff\LLL	.
.	.	.	.	.	.	32ddd\	.
16C\JJ	.	16g\JJ	.	16f\JJ	.	32ddd\	.
.	.	.	.	.	.	32bbn\JJJ	.
=21	=21	=21	=21	=21	=21	=21	=21
8C/	.	16g/LL	.	16en/LL	.	16ccc\LK	.
.	.	16E-/	.	16c/	.	16r	.
8r	.	16G/J	.	16en/J	.	16r	.
.	.	16r	.	16r	.	32bb-\LL	.
.	.	.	.	.	.	32ddd\JJJ	.
4r	.	16r	.	16r	.	8ccc\L	.
.	.	16c/L	.	16en/L	.	.	.
.	.	16en/JJ	.	16g/JJ	.	16r	.
.	.	16r	.	16r	.	32bb-\LL	.
.	.	.	.	.	.	32ddd\JJJ	.
=22	=22	=22	=22	=22	=22	=22	=22
2r	.	16r	.	16r	.	8ccc\L	.
.	.	16en\LL	.	16g/LL	.	.	.
.	.	16g\JJ	.	16b-/JJ	.	16r	.
.	.	16r	.	16r	.	16bbn\Jk	.
.	.	4r	.	4r	.	16ccc\LL	.
.	.	.	.	.	.	16bbn\	.
.	.	.	.	.	.	16ccc\	.
.	.	.	.	.	.	16bbn\JJ	.
=23	=23	=23	=23	=23	=23	=23	=23
2r	.	2r	.	4r	.	16bb-\LK	pp
.	.	.	.	.	.	16r	.
.	.	.	.	.	.	16gg\Jk	.
.	.	.	.	.	.	16r	.
.	.	.	.	16b-/LK	pp	16een\	.
.	.	.	.	16r	.	16r	.
.	.	.	.	16g/Jk	.	8r	.
.	.	.	.	16r	.	.	.
=24	=24	=24	=24	=24	=24	=24	=24
2r	.	2r	.	16en/	.	16ccc\LK	.
.	.	.	.	16r	.	16r	.
.	.	.	.	8r	.	16aa\Jk	.
.	.	.	.	.	.	16r	.
.	.	.	.	16a/LK	.	16ff\	.
.	.	.	.	16r	.	16r	.
.	.	.	.	16f/Jk	.	8r	.
.	.	.	.	16r	.	.	.
=25	=25	=25	=25	=25	=25	=25	=25
2r	.	16B-/LK	pp	16c/LL	.	16een\LL	.
.	.	16r	.	16cc/	.	16ff\	.
.	.	16G/k	.	16cc/	.	16gg\	.
.	.	16r	.	16cc/JJ	.	16aa\JJ	.
.	.	16En/k	.	8.cc\L	.	8bb-\L	.
.	.	16r	.	.	.	.	.
.	.	16r	.	.	.	16r	.
.	.	16B-/Jk	.	32bn\LL	.	16een\Jk	.
.	.	.	.	32cc\JJJ	.	.	.
=26	=26	=26	=26	=26	=26	=26	=26
4r	.	16A/LK	.	16c/LL	.	16ff\LL	.
.	.	16r	.	16cc/	.	16gg\	.
.	.	16F/k	.	16cc/	.	16aa\	.
.	.	16r	.	16cc/JJ	.	16bb-\JJ	.
8r	.	16C/k	.	8.cc\L	.	8ccc\L	.
.	.	16r	.	.	.	.	.
16r	.	16r	.	.	.	16r	.
16AA/	pp	16C/Jk	.	32bn\LL	.	16ff\Jk	.
.	.	.	.	32cc\JJJ	.	.	.
=27	=27	=27	=27	=27	=27	=27	=27
16BB-/LK	.	16C/LL	.	16r	.	16r	.
16r	.	16c/	.	16en/LK	.	16een\LK	.
16GG/k	.	16c/	.	16r	.	16r	.
16r	.	16c/JJ	.	16g/k	.	16gg\k	.
16EE-/k	.	(8.c/L	.	16r	.	16r	.
16r	.	.	.	16b-/k	.	16bb-\k	.
16r	.	.	.	16r	.	16r	.
16BB-/Jk	.	32Bn/LL	.	16en/Jk	.	16een\Jk	.
.	.	32c/JJJ)	.	.	.	.	.
=28	=28	=28	=28	=28	=28	=28	=28
16AA/LK	.	16C/LL	.	16r	.	16r	.
16r	.	16c/	.	16f/LK	.	16ff\LK	.
16FF/k	.	16c/	.	16r	.	16r	.
16r	.	16c/JJ	.	16a/k	.	16aa\k	.
16CC/k	.	(8.c/L	.	16r	.	16r	.
16r	.	.	.	16cc/k	.	16ccc\k	.
16AA/Jk	.	.	.	16r	.	16r	.
16r	.	32Bn/LL	.	16f/Jk	.	16ff\Jk	.
.	.	32c/JJJ)	.	.	.	.	.
=29	=29	=29	=29	=29	=29	=29	=29
16BB-/LK	<	16C/LL	.	16r	.	16r	.
16r	<	16C/ 16c/	.	16en/LK	<	16een\LK	<
16GG/k	<	16C/ 16c/	.	16r	<	16r	<
16r	.	16C/JJ 16c/	.	16g/k	.	16gg\k	.
16EEn/k	.	16C/LL 16c/	.	16r	.	16r	.
16r	.	16C/ 16c/	.	16b-/k	.	16bb-\k	.
16CC/Jk	.	16C/ 16c/	.	16r	.	16r	.
16r	.	16C/JJ 16c/	.	16een/Jk	.	16eeen\Jk	.
=30	=30	=30	=30	=30	=30	=30	=30
4DD-/	f	4D-/ 4d-/	.	4ff\	f	4fff\	f
(4D-\	.	(4d-\	.	4d-/	.	4d-/	.
=31	=31	=31	=31	=31	=31	=31	=31
4BB-/	.	4B-/	.	4B-/	.	4B-/	.
4GG/)	.	4G/)	.	4G/	.	4G/	.
=32	=32	=32	=32	=32	=32	=32	=32
(4GG/	.	[4E-/	.	4B-/	.	8.e-/L	.
.	.	.	.	.	.	16d-/Jk	.
8AA-/)	.	8E-/L]	.	8c/	.	8c/L	.
(8AA/	.	[8F/J	.	8c/	.	16.f/L	.
.	.	.	.	.	.	32e-/JJk	.
=33	=33	=33	=33	=33	=33	=33	=33
8BB-/)	.	8F/]	.	8d-/	.	8d-/	.
4BB-/	ff	4d-\	ff	4B-/	.	4g-/	ff
8BB-/	>	8d-\	>	8A-/	.	8f/	>
=34	=34	=34	=34	=34	=34	=34	=34
8BB-\L	.	8d-\L	p	8G/L	p	8en/L	p
8r	p	8r	.	8g/J	.	8r	.
8r	.	8r	.	8a-/L	.	8r	.
16.B-\L	pp	16.en\L	.	8g/J	.	16.dd-/L	pp
32B-\JJk	.	32en\JJk	.	.	.	32dd-/JJk	.
=35	=35	=35	=35	=35	=35	=35	=35
8B-\L	.	8e-\L	.	8en/L	.	4dd-\	.
8r	.	8r	.	8g/J	.	.	.
8r	.	8r	.	8a-/L	.	16r	.
.	.	.	.	.	.	16r	.
16.B-\L	<	16.d-\L	.	16.g/L	<	16.een\LL	<
32B-\JJk	<	32d-\JJk	<	32g/JJk	<	32een\JJk	<
=36	=36	=36	=36	=36	=36	=36	=36
(4Bn\	ff	(4d\	ff	4a-/	.	[4ff\	ff
8c\L	.	8c/L	.	8a/L	.	16ff\LL]	.
.	.	.	.	.	.	32een\L	.
.	.	.	.	.	.	32dd\	.
8C\J)	.	8B-/J)	.	8en/J	.	32cc\	.
.	.	.	.	.	.	32b-\	.
.	.	.	.	.	.	32a\	.
.	.	.	.	.	.	32g\JJJ	.
=37	=37	=37	=37	=37	=37	=37	=37
16F/LL	p	(8.A/L	p	8f/L	p	8f\L	.
16FF/	.	.	.	.	.	.	.
16FF/	.	.	.	8a/	.	8r	.
16FF/JJ	.	32G/LL	.	.	.	.	.
.	.	32F/JJJ	.	.	.	.	.
16FF/LL	.	8En/L	.	8b-/	.	16r	.
16FF/	.	.	.	.	.	8ccc\	p
16FF/	.	8F/J)	.	8a/J	.	.	.
16FF/JJ	.	.	.	.	.	16ff\Jk	.
=38	=38	=38	=38	=38	=38	=38	=38
16FF/LL	.	(8.B-/L	.	8g/L	.	8een\L	.
16FF/	.	.	.	.	.	.	.
16FF/	.	.	.	8b-/	.	8r	.
16FF/JJ	.	32A/LL	.	.	.	.	.
.	.	32G/JJJ	.	.	.	.	.
16FF/LL	.	8F#/L	.	8cc/	.	16r	.
16FF/	.	.	.	.	.	8ccc\	.
16FF/	.	8G/J)	.	8b-/J	.	.	.
16FF/JJ	.	.	.	.	.	16een\Jk	.
=39	=39	=39	=39	=39	=39	=39	=39
16FF/LK	<	16A/LK	<	16a/LK	<	16ff\LL	<
(8F/	<	(8A/	.	8a/	<	16fff\	<
.	.	.	.	.	.	16fff\	.
32G/LL	.	32B-/LL	.	32b-/LL	.	16fff\JJ	.
32A/JJJ)	.	32c/JJJ)	.	32cc/JJJ	.	.	.
16B-\LL	.	16d\LL	.	16dd\LL	.	16fff\LL	.
16c\	.	16en\	.	16een\	.	16fff\	.
16d\	.	16f\	.	16ff\	.	16fff\	.
16en\JJ	.	16g\JJ	.	16gg\JJ	<	16fff\JJ	.
=40	=40	=40	=40	=40	=40	=40	=40
16f\LL	p	16a\LL	p	8aa\	p	16fff\LL	p
16f\	.	16a\	.	.	.	32eeen\L	.
.	.	.	.	.	.	32ddd\	.
16B-\	.	16g\	.	8r	.	32ccc\	.
.	.	.	.	.	.	32bb-\	.
16B-\JJ	.	16g\JJ	.	.	.	32aa\	.
.	.	.	.	.	.	32gg\JJJ	.
(16c\LL	.	16f\LL	.	16a/LL	.	8ff\L	.
16Bn\	.	16f\	.	16a/	.	.	.
16c\	.	16en\	.	16b-/	.	16aa\L	.
16C\JJ)	.	16en\JJ	.	16b-/JJ	.	16gg\JJ	.
=41	=41	=41	=41	=41	=41	=41	=41
16FF/LL	.	(8.c/L	.	8.a/L	.	8ff\L	.
16F/	.	.	.	.	.	.	.
16F/	.	.	.	.	.	8aa\	.
16F/JJ	.	32B-/LL	.	32g/LL	.	.	.
.	.	32A/JJJ	.	32f/JJJ	.	.	.
16F\LL	.	8G/L	.	8en/L	.	8bb-\	.
16F\	.	.	.	.	.	.	.
16F\	.	8A/J)	.	8f/J	.	8aa\J	.
16F\JJ	.	.	.	.	.	.	.
=42	=42	=42	=42	=42	=42	=42	=42
16FF/LL	.	(8.d-\L	.	8.b-/L	.	8gg\L	.
16F/	.	.	.	.	.	.	.
16F/	.	.	.	.	.	8bb-\	.
16F/JJ	.	32c\LL	.	32a/LL	.	.	.
.	.	32B-\JJJ	.	32g/JJJ	.	.	.
16F\LL	.	8A/L	.	8f#/L	.	8ccc\	.
16F\	.	.	.	.	.	.	.
16F\	.	8B-/J)	.	8g/J	.	[8bb-\J	.
16F\JJ	.	.	.	.	.	.	.
=43	=43	=43	=43	=43	=43	=43	=43
16FF/LL	<	(8.e-\L	<	8.cc\L	.	16.bb-\LL]	<
16F/	<	.	.	.	.	.	.
.	.	.	.	.	.	32aa\Jk	<
16F/	.	.	.	.	.	8ccc\J	.
16F/JJ	.	32d\LL	<	32b-\LL	.	.	.
.	.	32c\JJJ)	.	32a\JJJ	.	.	.
16FF/LL	.	(8.f\L	.	8.dd\L	.	16.ccc\LL	.
16F/	.	.	.	.	.	.	.
.	.	.	.	.	.	32bb-\Jk	.
16F/	.	.	.	.	.	[8ddd\J	.
16F/JJ	.	32e-\LL	.	32cc\LL	.	.	.
.	.	32d\JJJ)	.	32b-\JJJ	.	.	.
=44	=44	=44	=44	=44	=44	=44	=44
16FF/LL	.	[8g\L	.	[8ee-\L	.	16.ddd\LL]	.
16F/	.	.	.	.	.	.	.
.	.	.	.	.	.	32ccc\Jk	.
16F/	.	(16g\L]	.	16ee-\L]	.	[8eee-\J	.
16F/JJ	.	32f\L	.	32dd\L	.	.	.
.	.	32e-\JJJ)	.	32cc\JJJ	f	.	.
16FF/LL	f	(8d\L	f	8b-/L	.	8.eee-\L]	f
16F/	.	.	.	.	.	.	.
16FF/	.	8c\J)	.	8a/J	.	.	.
16F/JJ	.	.	.	.	.	32ddd\LL	.
.	.	.	.	.	.	32ccc\JJJ	.
=45	=45	=45	=45	=45	=45	=45	=45
2r	.	2r	.	2r	.	32bb-\LLL	.
.	.	.	.	.	.	32aa\	.
.	.	.	.	.	.	32gg\	.
.	.	.	.	.	.	32ff\	.
.	.	.	.	.	.	32ee-\	.
.	.	.	.	.	.	32dd\	.
.	.	.	.	.	.	32cc\	.
.	.	.	.	.	.	32b-\JJJ	>
.	.	.	.	.	.	16a/LL	.
.	.	.	.	.	.	16g/	.
.	.	.	.	.	.	16f/	.
.	.	.	.	.	.	16en/JJ	.
=46	=46	=46	=46	=46	=46	=46	=46
2r	.	2r	.	2r	.	8e-/L	.
.	.	.	.	.	.	8d/	.
.	.	.	.	.	.	8c#/	.
.	.	.	.	.	.	8c/J	.
=47	=47	=47	=47	=47	=47	=47	=47
(4BB-/	p	4F/	p	4B-/	p	8B-/L	p
.	.	.	.	.	.	8d/	.
8AA/L	.	(8F/L	.	8c/L	.	8e-/	.
8BB-/J)	.	8F/J)	.	8B-/J	.	8d/J	.
=48	=48	=48	=48	=48	=48	=48	=48
8.FF/L	.	4F/	.	4A/	.	8c/L	.
.	.	.	.	.	.	8e-/	.
16C/Jk	.	.	.	.	.	.	.
8BBn/L	.	(8F/L	.	8G#/L	.	8f/	.
8C/J	.	8F/J)	.	8A/J	.	8e-/J	.
=49	=49	=49	=49	=49	=49	=49	=49
8.FF/L	.	(4F/	.	4B-/	.	8d/L	.
.	.	.	.	.	.	8f/	.
16D/Jk	.	.	.	.	.	.	.
8C#/L	.	8En/L	.	8B-/L	.	8g/	.
8D/J	.	8F/J)	.	8B-/J	.	8f/J	.
=50	=50	=50	=50	=50	=50	=50	=50
(4C/	.	(8G/L	.	8B-/	.	16f/LL	.
.	.	.	.	.	.	16en/	.
.	.	[8B-/J)	.	8r	.	16d/	.
.	.	.	.	.	.	16c/JJ	.
(4FF/)	.	(16B-/LL]	.	8.f/L	.	8f/	.
.	.	16A/	.	.	.	.	.
.	.	16G/	.	.	.	8r	.
.	.	16F/JJ)	.	16e-/Jk	.	.	.
=51	=51	=51	=51	=51	=51	=51	=51
8BB-/L)	.	8F/	.	16e-/LL	.	8b-\L	.
.	.	.	.	16d/	.	.	.
(8BB-/	.	4f\	.	16c/	.	8dd\	.
.	.	.	.	16B-/JJ	.	.	.
8C/	.	.	.	8A/L	.	8ee-\	.
8BB-/J)	.	8f\	.	8B-/J	.	8dd\J	.
=52	=52	=52	=52	=52	=52	=52	=52
8FF/L	.	(4a\	.	16f/LL	.	8cc\L	.
.	.	.	.	16e-/	.	.	.
8F/	.	.	.	16d/	.	8ee-\	.
.	.	.	.	16c/JJ	.	.	.
8F/	.	8g#\L	.	8Bn/L	.	8ff\	.
8F/J	.	8a\J)	.	8c/J	.	8ee-\J	.
=53	=53	=53	=53	=53	=53	=53	=53
8FF/L	.	(4.b-\	.	16g/LL	.	8dd\L	.
.	.	.	.	16f/	.	.	.
8F/	.	.	.	16e-/	.	8ff\	.
.	.	.	.	16d/JJ	.	.	.
8F/	.	.	.	8c#/L	.	8gg\	.
8F/J	.	8b-\)	.	8d/J	.	8ff\J	.
=54	=54	=54	=54	=54	=54	=54	=54
(4C/	.	(8g\L	.	[4b-\	.	16ff\LL	.
.	.	.	.	.	.	16een\	.
.	.	8en\	.	.	.	16dd\	.
.	.	.	.	.	.	16cc\JJ	.
4F\)	.	8c\	.	16b-/LL]	.	8.ff\L	.
.	.	.	.	16a/	.	.	.
.	.	8A\J)	.	16g/	.	.	.
.	.	.	.	16f/JJ	.	16ee-\Jk	.
=55	=55	=55	=55	=55	=55	=55	=55
(4BB-/	.	(8f\L	.	[4a-/	.	16ee-\LL	.
.	.	.	.	.	.	16dd\	.
.	.	8d\	.	.	.	16cc\	.
.	.	.	.	.	.	16b-\JJ	.
4E-\)	.	8B-\	.	16a-/LL]	.	8.ee-\L	.
.	.	.	.	16g/	.	.	.
.	.	8G\J)	.	16f/	.	.	.
.	.	.	.	16e-/JJ	.	16cc\Jk	.
=56	=56	=56	=56	=56	=56	=56	=56
8E-/L	<	(8f\L	<	8c/	.	16.b-\LL	<
.	.	.	.	.	.	32a\k	<
8D/	<	[8B-\J)	.	4f/	<	16.cc\	.
.	.	.	.	.	.	32b-\JJk	.
8C/	.	16.B-/LL]	.	.	.	16.dd\LL	.
.	.	(32A/k	.	.	.	32cc\k	.
8BB-/J	.	16.c/	.	8f/	.	16.ee-\	.
.	.	32B-/JJk)	.	.	.	32dd\JJk	.
=57	=57	=57	=57	=57	=57	=57	=57
8.E-\L	.	(16.d\LL	.	16.f/LL	.	16.ff\LL	.
.	.	32c\JJk)	.	32e-/JJk	.	32ee-\JJk	.
.	.	4B-/	.	4d/	.	4dd\	.
16En\Jk	.	.	.	.	.	.	.
8F/L	.	.	.	.	.	.	.
8FF/J	.	(16.c/LL	.	16.e-/LL	.	16.ee-\LL	.
.	.	32A/JJk)	.	32c/JJk	.	32cc\JJk	.
=58	=58	=58	=58	=58	=58	=58	=58
8BB-\L	p	8B-/	p	8B-/	p	8b-\	p
8B-\J	.	8r	.	8r	.	8r	.
4r	.	4r	.	4r	.	32dd\LLL	.
.	.	.	.	.	.	32ee-\	.
.	.	.	.	.	.	32ff\	.
.	.	.	.	.	.	32gg\	.
.	.	.	.	.	.	32aa\	.
.	.	.	.	.	.	32bb-\	.
.	.	.	.	.	.	32ccc\	.
.	.	.	.	.	.	32ddd\JJJ	.
=59	=59	=59	=59	=59	=59	=59	=59
2r	.	(8a\L	.	8cc\L	.	16.fff\LL	.
.	.	.	.	.	.	32eee-\Jk	.
.	.	16b-\Jk)	.	16b-\Jk	.	8ddd\J	.
.	.	16r	.	16r	.	.	.
.	.	(8e-\L	.	8gg\L	.	16.ddd\LL	.
.	.	.	.	.	.	32ccc\Jk	.
.	.	16en\Jk)	.	16gg\Jk	.	8bb-\J	.
.	.	16r	.	16r	.	.	.
=60	=60	=60	=60	=60	=60	=60	=60
4r	.	8f\	.	8cc\	.	32aa\LLL	.
.	.	.	.	.	.	32gg\	.
.	.	.	.	.	.	32aa\	.
.	.	.	.	.	.	32bb-\JJ	.
.	.	8r	.	8r	.	8ccc\J	.
(32BB-\LLL	.	(32D/LLL	.	4r	.	4r	.
32C\	.	32E-/	.	.	.	.	.
32D\	.	32F/	.	.	.	.	.
32E-\	.	32G/	.	.	.	.	.
32F\	.	32A/	.	.	.	.	.
32G\	.	32B-/	.	.	.	.	.
32A\	.	32c/	.	.	.	.	.
32B-\JJJ)	.	32d/JJJ)	.	.	.	.	.
=61	=61	=61	=61	=61	=61	=61	=61
(8A\L	.	(16.f\LL	.	2r	.	2r	.
.	.	32e-\Jk)	.	.	.	.	.
16B-\Jk)	.	8d\J	.	.	.	.	.
16r	.	.	.	.	.	.	.
(8E-\L	.	(16.d\LL	.	.	.	.	.
.	.	32c\Jk)	.	.	.	.	.
16En\Jk)	.	8B-\J	.	.	.	.	.
16r	.	.	.	.	.	.	.
=62	=62	=62	=62	=62	=62	=62	=62
8F/L	.	32A/LLL	.	4r	.	2r	.
.	.	32G/	.	.	.	.	.
.	.	32A/	.	.	.	.	.
.	.	32B-/JJ)	.	.	.	.	.
8FF/J	.	8c/J	.	.	.	.	.
4r	.	4r	.	32d/LLL	pp	.	.
.	.	.	.	32e-/	.	.	.
.	.	.	.	32f/	.	.	.
.	.	.	.	32g/	.	.	.
.	.	.	.	32a/	.	.	.
.	.	.	.	32b-/	.	.	.
.	.	.	.	32cc/	.	.	.
.	.	.	.	32cc#/JJJ	.	.	.
=63	=63	=63	=63	=63	=63	=63	=63
16BB-/LL	pp	(4F/	pp	4dd\	.	4aa-\	pp
16BB-/	.	.	.	.	.	.	.
16BB-/	.	.	.	.	.	.	.
16BB-/JJ	.	.	.	.	.	.	.
16BB-/LL	.	4f\)	.	4a-/	.	4dd\	.
16BB-/	.	.	.	.	.	.	.
16BB-/	.	.	.	.	.	.	.
16BB-/JJ	.	.	.	.	.	.	.
=64	=64	=64	=64	=64	=64	=64	=64
16C-/LL	<	[2e-\	<	4g-/	<	[4ee-\	<
16C-/	<	.	.	.	.	.	.
16C-/	.	.	.	.	.	.	.
16C-/JJ	.	.	.	.	.	.	.
16AA-/LL	.	.	.	4f/	.	16ee-\LL]	<
16AA-/	.	.	.	.	.	32dd-\L	.
.	.	.	.	.	.	32cc-\	.
16AA-/	.	.	.	.	.	32b-\	.
.	.	.	.	.	.	32a-\	.
16AA-/JJ	.	.	.	.	.	32g-\	.
.	.	.	.	.	.	32f\JJJ	.
=65	=65	=65	=65	=65	=65	=65	=65
16BB-/LL	.	16e-/LK]	<	16g-/LK	.	16.b-/LL	.
16BB-/	.	8G-/	.	8B-/	.	.	.
.	.	.	.	.	.	32g-/k	.
16BB-/	.	.	.	.	.	16e-/	.
16BB-/JJ	.	16G-/Jk	.	[16B-/Jk	.	16e-/JJ	.
16BB-/LL	.	16F/LK	.	16B-/LK]	.	16.a-/LL	.
16BB-/	.	8A-/	.	8B-/	.	.	.
.	.	.	.	.	.	32f/k	.
16BB-/	.	.	.	.	.	16d/	.
16BB-/JJ	.	16A-/Jk	.	16B-/Jk	.	16d/JJ	.
=66	=66	=66	=66	=66	=66	=66	=66
16E-\LL	p	(8G-/L	p	8B-/	.	8e-\L	p
16E-\	.	.	.	.	.	.	.
16D-\	.	8F/J	.	8r	.	8r	.
16D-\JJ	.	.	.	.	.	.	.
16C/LL	.	8E-/L	.	4r	.	32r	.
.	.	.	.	.	.	32g-\LL	.
16C/	.	.	.	.	.	32a-\	.
.	.	.	.	.	.	32b-\	.
16BB-/	.	8D-/J)	.	.	.	32cc\	.
.	.	.	.	.	.	32dd-\	.
16BB-/JJ	.	.	.	.	.	32ee-\	.
.	.	.	.	.	.	32ff\JJJ	.
=67	=67	=67	=67	=67	=67	=67	=67
16AA-/LL	<	(4C/	<	4ee-\	<	4gg-\	<
16AA-/	<	.	.	.	.	.	.
16AA-/	.	.	.	.	.	.	.
16AA-/JJ	.	.	.	.	.	.	.
16AA/LL	.	4e-\)	<	4g-/	.	4ccc\	<
16AA/	.	.	.	.	.	.	.
16AA/	.	.	.	.	.	.	.
16AA/JJ	.	.	.	.	.	.	.
=68	=68	=68	=68	=68	=68	=68	=68
16BB-/LL	.	[2d-\	.	4f/	.	[4ddd-\	.
16BB-/	.	.	.	.	.	.	.
16BB-/	.	.	.	.	.	.	.
16BB-/JJ	.	.	.	.	.	.	.
16GG-/LL	.	.	.	4e-/	.	16ddd-\LL]	.
16GG-/	.	.	.	.	.	32ccc\L	.
.	.	.	.	.	.	32bb-\	.
16GG-/	.	.	.	.	.	32aa-\	.
.	.	.	.	.	.	32gg-\	.
16GG-/JJ	.	.	.	.	.	32ff\	.
.	.	.	.	.	.	32dd\JJJ	.
=69	=69	=69	=69	=69	=69	=69	=69
16AA-/LL	.	16d-\LK]	.	16f/LK	.	16.aa-\LL	.
16AA-/	.	8d-\	.	8f/	.	.	.
.	.	.	.	.	.	32ff\k	.
16AA-/	.	.	.	.	.	16dd-\	.
16AA-/JJ	.	(16d-\Jk	.	16f/Jk	.	16dd-\JJ	.
16AA-/LL	.	16e-\LK)	.	16g-/LK	.	16.gg-\LL	.
16AA-/	.	8e-\	.	8g-/	.	.	.
.	.	.	.	.	.	32ee-\k	.
16AA/	.	.	.	.	.	16cc\	.
16AA/JJ	.	16e-\Jk	.	16g-/Jk	.	16cc\JJ	.
=70	=70	=70	=70	=70	=70	=70	=70
16BB-/LL	.	(8d-\	.	4f/	.	32dd-/LLL	.
.	.	.	.	.	.	32cc/	.
16BB-/	.	.	.	.	.	32b-/	.
.	.	.	.	.	.	32a-/	.
16BB-/	.	4D-/)	.	.	.	32g-/	.
.	.	.	.	.	.	32f/	.
16BB-/JJ	.	.	.	.	.	32e-/	.
.	.	.	.	.	.	32d-/JJJ	.
16GG-/LL	.	.	.	4e-/	.	32b-/LLL	.
.	.	.	.	.	.	32a-/	.
16GG-/	.	.	.	.	.	32g-/	.
.	.	.	.	.	.	32f/	.
16GG/	.	8D-/	.	.	.	32e-/	.
.	.	.	.	.	.	32d-/	.
16GG/JJ	.	.	.	.	.	32c/	.
.	.	.	.	.	.	32B-/JJJ	.
=71	=71	=71	=71	=71	=71	=71	=71
16AA-/LL	f	(16.F/LL	f	16.a-/LL	f	2A-/	f
16AA-/	.	.	.	.	.	.	.
.	.	32D-/k)	.	32f/k	.	.	.
16AA-/	.	16F/	.	16d-/	.	.	.
16AA-/JJ	.	16F/JJ	.	16d-/JJ	.	.	.
16AA-/LL	.	(16.C/LL	.	16.g-/LL	.	.	.
16AA-/	.	.	.	.	.	.	.
.	.	32E-/k)	.	32e-/k	.	.	.
16AA-/	.	16G-/	.	16c/	.	.	.
16AA-/JJ	.	16G-/JJ	.	16c/JJ	.	.	.
=72	=72	=72	=72	=72	=72	=72	=72
(8DD-/L	p	8F/L	p	16d/	p	8f/L	p
.	.	.	.	8A-/L	.	.	.
8FF/	.	(8F/	.	.	.	8d-/	.
.	.	.	.	8A-/	.	.	.
8GG-/	.	8E-/	.	.	.	8c/	.
.	.	.	.	8A-/	.	.	.
8FF/J)	.	8F/J)	.	.	.	8d-/J	.
.	.	.	.	16A-/Jk	.	.	.
=73	=73	=73	=73	=73	=73	=73	=73
(8EE-/L	.	(8B-/L	.	16B-/LK	.	8g-/L	.
.	.	.	.	8B-/	.	.	.
8GG-/	.	8G-/	.	.	.	8e-/	.
.	.	.	.	8B-/	.	.	.
8AA-/	.	8F/	.	.	.	8d/	.
.	.	.	.	8B-/	.	.	.
8GG-/J)	.	8G-/J)	.	.	.	8e-/J	.
.	.	.	.	16B-/Jk	.	.	.
=74	=74	=74	=74	=74	=74	=74	=74
(8FF/L	.	(8d-/L	.	16A-/LK	.	8a-/L	.
.	.	.	.	8d-/	.	.	.
8AA-/	.	8A-/	.	.	.	8f/	.
.	.	.	.	8d-/	.	.	.
8BB-/	.	8G/	.	.	.	8en/	.
.	.	.	.	8d-/	.	.	.
8AA-/J)	.	8A-/J)	.	.	.	8f/J	.
.	.	.	.	[16d-/Jk	.	.	.
=75	=75	=75	=75	=75	=75	=75	=75
8GG-/L	.	16B-/LK	.	16d-/LK]	.	8g-/L	.
.	.	8G-/	.	8B-/	.	.	.
(8GG-/	.	.	.	.	.	8e-/	.
.	.	[16G-/Jk	.	[16B-/Jk	.	.	.
8AA-/)	.	16G-/LL]	.	16B-/LL]	.	8d-/	.
.	.	16F/	.	16A-/	.	.	.
8AA-/J	.	16G-/	.	16A-/	.	8c/J	.
.	.	16G-/JJ	.	16A-/JJ	.	.	.
=76	=76	=76	=76	=76	=76	=76	=76
(16D-\LL	.	(8D-/L	.	8.f/L	.	8.ff\L	.
16A-\)	.	.	.	.	.	.	.
16A-\	.	8F/	.	.	.	.	.
16A-\JJ	.	.	.	32e-/LL	.	32ee-\LL	.
.	.	.	.	32d-/JJJ	.	32dd-\JJJ	.
16A-\LL	.	8G-/	.	8c/L	.	8cc\L	.
16A-\	.	.	.	.	.	.	.
16A-\	.	8F/J)	.	8d-/J	.	8dd-\J	.
16A-\JJ	.	.	.	.	.	.	.
=77	=77	=77	=77	=77	=77	=77	=77
16A-\LL	.	(8E-/L	.	8.g-/L	.	8.gg-\L	.
16A-\	.	.	.	.	.	.	.
16A-\	.	8G-/	.	.	.	.	.
16A-\JJ	.	.	.	32f/LL	.	32ff\LL	.
.	.	.	.	32e-/JJJ	.	32ee-\JJJ	.
16A-\LL	.	8A-/	.	8d/L	.	8dd\L	.
16A-\	.	.	.	.	.	.	.
16A-\	.	8G-/J)	.	8e-/J	.	8ee-\J	.
16A-\JJ	.	.	.	.	.	.	.
=78	=78	=78	=78	=78	=78	=78	=78
(16A-\LL	<	(8F/L	<	8.a-/L	<	8.aa-\L	<
16d-\)	<	.	.	.	.	.	.
16d-\	.	8A-/	<	.	.	.	.
16d-\JJ	.	.	.	32g/LL	<	32gg\LL	<
.	.	.	.	32f/JJJ	.	32ff\JJJ	.
16d-\LL	.	8B-/	.	8en/L	.	8een\L	.
16d-\	.	.	.	.	.	.	.
16d-\	.	8A-/J)	.	8f/J	.	8ff\J	.
16d-\JJ	.	.	.	.	.	.	.
=79	=79	=79	=79	=79	=79	=79	=79
16d-\LL	.	(8B-\L	.	8g\L	.	8.gg\L	.
16B-\	.	.	.	.	.	.	.
16B-\	.	8b-\	.	8dd-\	.	.	.
16B-\JJ	.	.	.	.	.	32bb-\LL	.
.	.	.	.	.	.	32ddd-\JJJ	.
16c\LL	.	8a-\	.	8cc\	.	8ff\L	.
16c\	.	.	.	.	.	.	.
16C\	.	8g\J)	.	8b-\J	.	8een\J	.
16C\JJ	.	.	.	.	.	.	.
=80	=80	=80	=80	=80	=80	=80	=80
8F\	p	(8f\L	p	8a-\L	p	32ff\LLL	p
.	.	.	.	.	.	32ccc\	.
.	.	.	.	.	.	32bbn\	.
.	.	.	.	.	.	32ccc\JJJ	.
8r	.	8a-\	.	8cc\	.	32bb-\LLL	.
.	.	.	.	.	.	32aa-\	.
.	.	.	.	.	.	32gg\	.
.	.	.	.	.	.	32ff\JJJ	.
4r	.	8b-\	.	8dd-\	.	32een\LLL	.
.	.	.	.	.	.	32ff\	.
.	.	.	.	.	.	32gg\	.
.	.	.	.	.	.	32een\JJJ	.
.	.	8a-\J)	.	8cc\J	.	32ff\LLL	.
.	.	.	.	.	.	32gg\	.
.	.	.	.	.	.	32aa-\	.
.	.	.	.	.	.	32ff\JJJ	.
=81	=81	=81	=81	=81	=81	=81	=81
16FF/LK	.	32r	.	8a-\L	.	8ff\L	.
.	.	(32cc\LLL	.	.	.	.	.
8F/	.	32bn\	.	.	.	.	.
.	.	32cc\JJJ	.	.	.	.	.
.	.	32b-\LLL	.	8cc\	.	8aa-\	.
.	.	32a-\	.	.	.	.	.
8F/	.	32g\	.	.	.	.	.
.	.	32f\JJJ	.	.	.	.	.
.	.	32en\LLL	.	8dd-\	.	8bb-\	.
.	.	32g\	.	.	.	.	.
8F/	.	32f\	.	.	.	.	.
.	.	32en\JJJ	.	.	.	.	.
.	.	32e-\LLL	.	8cc\J	.	8aa\J	.
.	.	32g-\	.	.	.	.	.
16F/Jk	.	32f\	.	.	.	.	.
.	.	32e-\JJJ)	.	.	.	.	.
=82	=82	=82	=82	=82	=82	=82	=82
8BB-/	.	8d-\L	.	8b-/L	.	32bb-\LLL	.
.	.	.	.	.	.	32ff\	.
.	.	.	.	.	.	32een\	.
.	.	.	.	.	.	32dd\JJJ	.
8r	.	(8d-\	.	8f/	.	32ee-\LLL	.
.	.	.	.	.	.	32dd-\	.
.	.	.	.	.	.	32cc\	.
.	.	.	.	.	.	32b-\JJJ	.
4r	.	8e-\	.	8g-/	.	32a/LLL	.
.	.	.	.	.	.	32b-/	.
.	.	.	.	.	.	32cc/	.
.	.	.	.	.	.	32a/JJJ	.
.	.	8d-\J)	.	8f/J	.	32b-\LLL	.
.	.	.	.	.	.	32cc\	.
.	.	.	.	.	.	32dd-\	.
.	.	.	.	.	.	32b-\JJJ	.
=83	=83	=83	=83	=83	=83	=83	=83
16BB-\LK	.	32r	.	8dd-\L	.	8bb-\L	.
.	.	(32f\LLL	.	.	.	.	.
8B-\	.	32en\	.	.	.	.	.
.	.	32f\JJJ	.	.	.	.	.
.	.	32e-\LLL	.	8ff\	.	8ddd-\	.
.	.	32d-\	.	.	.	.	.
8B-\	.	32c\	.	.	.	.	.
.	.	32B-\JJJ	.	.	.	.	.
.	.	32A/LLL	.	8gg-\	.	8eee-\	.
.	.	32c/	.	.	.	.	.
8B-\	.	32B-/	.	.	.	.	.
.	.	32A/JJJ	.	.	.	.	.
.	.	32A-/LLL	.	8ff\J	.	8ddd\J	.
.	.	32c-/	.	.	.	.	.
16B-\Jk	.	32B-/	.	.	.	.	.
.	.	32A-/JJJ)	.	.	.	.	.
=84	=84	=84	=84	=84	=84	=84	=84
8E-\	.	8G-/	.	8ee-\	.	32eee-\LLL	.
.	.	.	.	.	.	32bb-\	.
.	.	.	.	.	.	32aa\	.
.	.	.	.	.	.	32bb-\JJJ	.
8r	.	(8g-\L	.	8b-\L	.	32aa-\LLL	.
.	.	.	.	.	.	32gg-\	.
.	.	.	.	.	.	32ff\	.
.	.	.	.	.	.	32ee-\JJJ	.
4r	.	8a-\	.	8cc-\	.	32dd\LLL	.
.	.	.	.	.	.	32ee-\	.
.	.	.	.	.	.	32ff\	.
.	.	.	.	.	.	32dd\JJJ	.
.	.	8g-\J)	.	8b-\J	.	32ee-\LLL	.
.	.	.	.	.	.	32ff\	.
.	.	.	.	.	.	32gg-\	.
.	.	.	.	.	.	32ee-\JJJ	.
=85	=85	=85	=85	=85	=85	=85	=85
16EE-/LK	.	32r	.	8ee-\L	.	8gg-\L	.
.	.	(32b-\LLL	.	.	.	.	.
8E-/	.	32a\	.	.	.	.	.
.	.	32b-\JJJ	.	.	.	.	.
.	.	32a-\LLL	.	8gg-\	.	8bb-\	.
.	.	32g-\	.	.	.	.	.
8E-/	.	32f\	.	.	.	.	.
.	.	32e-\JJJ	.	.	.	.	.
.	.	32d\LLL	.	8aa-\	.	8ccc-\	.
.	.	32e-\	.	.	.	.	.
8E-/	.	32f\	.	.	.	.	.
.	.	32d\JJJ	.	.	.	.	.
.	.	32e-\LLL	.	8gg-\J	.	8bb-\J	.
.	.	32f\	.	.	.	.	.
16E-/Jk	.	32g-\	.	.	.	.	.
.	.	32e-\JJJ)	.	.	.	.	.
=86	=86	=86	=86	=86	=86	=86	=86
(8EE-/L	pp	16G-/LK	pp	8b-/L	pp	32r	pp
.	.	.	.	.	.	32bb-\LLL	.
.	.	8B-/	.	.	.	32aa\	.
.	.	.	.	.	.	32bb-\JJJ	.
8GG-/	.	.	.	8e-/	.	32aa-\LLL	.
.	.	.	.	.	.	32gg-\	.
.	.	8B-/	.	.	.	32ff\	.
.	.	.	.	.	.	32ee-\JJJ	.
8AA-/)	.	.	.	8d/	.	32dd\LLL	.
.	.	.	.	.	.	32ee-\	.
.	.	8c-/	.	.	.	32ff\	.
.	.	.	.	.	.	32dd\JJJ	.
[8GG-/J	.	.	.	8e-/J	.	32ee-\LLL	.
.	.	.	.	.	.	32ff\	.
.	.	[16B-/Jk	.	.	.	32gg-\	.
.	.	.	.	.	.	32ee-\JJJ	.
=87	=87	=87	=87	=87	=87	=87	=87
8GG-/L]	<	16B-/LK]	<	8c/L	<	32cc\LLL	<
.	.	.	.	.	.	32dd-\	.
.	.	8A/	<	.	.	32ee-\	<
.	.	.	.	.	.	32cc\JJJ	.
[8FF-/	<	.	.	8d-/J	<	32dd-\LLL	.
.	.	.	.	.	.	32ee-\	.
.	.	8A-/	.	.	.	32ff-\	.
.	.	.	.	.	.	32dd-\JJJ	.
8FF-/]	.	.	.	8B-/L	.	32b-\LLL	.
.	.	.	.	.	.	32cc-\	.
.	.	8G/	.	.	.	32dd-\	.
.	.	.	.	.	.	32b-\JJJ	.
[8EE-/J	.	.	.	8c-/J	.	32cc-\LLL	.
.	.	.	.	.	.	32dd-\	.
.	.	[16G-/Jk	.	.	.	32ee-\	.
.	.	.	.	.	.	32cc-\JJJ	.
=88	=88	=88	=88	=88	=88	=88	=88
8EE-/L]	.	16G-/LK]	.	8A/L	.	32a/LLL	.
.	.	.	.	.	.	32b-/	.
.	.	8F/	.	.	.	32cc/	.
.	.	.	.	.	.	32a/JJJ	.
8DD-/	.	.	.	8f/J	.	32b-\LLL	.
.	.	.	.	.	.	32cc\	.
.	.	8F/	.	.	.	32dd-\	.
.	.	.	.	.	.	32b-\JJJ	.
8CC/	.	.	.	8e-/L	.	32a-/LLL	.
.	.	.	.	.	.	32b-/	.
.	.	8E-/	.	.	.	32cc/	.
.	.	.	.	.	.	32a-/JJJ	.
8BB-/J	.	.	.	8d-/J	.	32g-/LLL	.
.	.	.	.	.	.	32a-/	.
.	.	[16D-/Jk	.	.	.	32b-/	.
.	.	.	.	.	.	32g-/JJJ	.
=89	=89	=89	=89	=89	=89	=89	=89
8AA/L	.	16D-/LK]	.	8c/L	.	32f\LLL	.
.	.	.	.	.	.	32aa\	.
.	.	8C/	.	.	.	32gg\	.
.	.	.	.	.	.	32ff\JJJ	.
8AA-/	.	.	.	8cc/J	.	32een\LLL	.
.	.	.	.	.	.	32ff\	.
.	.	8c/	.	.	.	32gg\	.
.	.	.	.	.	.	32ff\JJJ	.
8GG/	.	.	.	8dd-/L	.	32een\LLL	.
.	.	.	.	.	.	32ddd-\	.
.	.	8B-/	.	.	.	32ccc\	.
.	.	.	.	.	.	32bb-\JJJ	.
8GG-/J	.	.	.	8en/J	.	32aa\LLL	.
.	.	.	.	.	.	32bb-\	.
.	.	16A/Jk	.	.	.	32ccc\	.
.	.	.	.	.	.	32bb-\JJJ	.
=90	=90	=90	=90	=90	=90	=90	=90
8FF/	p	16A/LL	p	4f/	p	8aa\	p
.	.	16F/	.	.	.	.	.
8r	.	16A/	.	.	.	8r	.
.	.	16F/JJ	.	.	.	.	.
4r	.	16B-/LL	.	32en/LLL	.	4r	.
.	.	.	.	32f/	.	.	.
.	.	16F/	.	32g/	.	.	.
.	.	.	.	32a/JJJ	.	.	.
.	.	16B-/	.	32b-/LLL	.	.	.
.	.	.	.	32g/	.	.	.
.	.	16F/JJ	.	32f/	.	.	.
.	.	.	.	32en/JJJ	.	.	.
=91	=91	=91	=91	=91	=91	=91	=91
16FF/LL	.	(16A\LL	.	16.cc/LL	.	[8cc\L	.
16F/	.	16c\	.	.	.	.	.
.	.	.	.	32a/Jk	.	.	.
16A/	.	16f\	.	8f/J	.	32cc\LL]	.
.	.	.	.	.	.	32aa\	.
16F/JJ	.	16a\JJ)	.	.	.	32aa\	.
.	.	.	.	.	.	32ff\JJJ	.
16B-\LL	.	16cc\LL	.	4r	.	32ff\LLL	.
.	.	.	.	.	.	32een\	.
16F\	.	16cc\	.	.	.	32een\	.
.	.	.	.	.	.	32bb-\JJJ	.
16B-\	.	16cc\	.	.	.	32bb-\LLL	.
.	.	.	.	.	.	32gg\	.
16F\JJ	.	16cc\JJ	.	.	.	32gg\	.
.	.	.	.	.	.	32een\JJJ	.
=92	=92	=92	=92	=92	=92	=92	=92
8F\	.	16a\LL	.	[8ff\L	.	16.ccc\LL	.
.	.	16f\	.	.	.	.	.
.	.	.	.	.	.	32aa\Jk	.
8r	.	16a\	.	32ff\LL]	.	8ff\J	.
.	.	.	.	32aa\	.	.	.
.	.	16f\JJ	.	32gg\	.	.	.
.	.	.	.	32ff\JJJ	.	.	.
4r	.	16b-\LL	.	32een\LLL	.	4r	.
.	.	.	.	32ff\	.	.	.
.	.	16f\	.	32gg\	.	.	.
.	.	.	.	32aa\JJJ	.	.	.
.	.	16b-\	.	32bb-\LLL	.	.	.
.	.	.	.	32gg\	.	.	.
.	.	16f\JJ	.	32ff\	.	.	.
.	.	.	.	32een\JJJ	.	.	.
=93	=93	=93	=93	=93	=93	=93	=93
16FF/LL	.	(16A\LL	.	16.ccc\LL	.	[8fff\L	.
16F/	.	16c\	.	.	.	.	.
.	.	.	.	32aa\Jk	.	.	.
16A/	.	16f\	.	8ff\	.	32fff\LL]	.
.	.	.	.	.	.	32aaa\	.
16F/JJ	.	16a\JJ)	.	.	.	32ggg\	.
.	.	.	.	.	.	32fff\JJJ	.
16B-\LL	.	16cc\LL	.	16r	.	32fff\LLL	.
.	.	.	.	.	.	32eeen\	.
16F\	.	16B-\	.	16c\L	.	32eeen\	.
.	.	.	.	.	.	32bbb-\JJJ	.
16B-\	.	16B-\	.	16c\	.	32bbb-\LLL	.
.	.	.	.	.	.	32ggg\	.
16F\JJ	.	16B-\JJ	.	16c\JJ	.	32ggg\	.
.	.	.	.	.	.	32eeen\JJJ	.
=94	=94	=94	=94	=94	=94	=94	=94
8F\	.	16A\LL	>	16c/LL	.	8fff\L	>
.	.	16A\	.	16f/	.	.	.
8r	.	16c\J	.	16a/J	.	16r	.
.	.	16r	.	16r	.	32eeen\LL	.
.	.	.	.	.	.	32ggg\JJJ	.
4r	.	16r	.	16r	.	8fff\L	.
.	.	16f\L	.	16a/L	.	.	.
.	.	16a\JJ	.	16cc/JJ	.	16r	.
.	.	16r	.	16r	.	32eeen\LL	.
.	.	.	.	.	.	32ggg\JJJ	.
=95	=95	=95	=95	=95	=95	=95	=95
2r	.	16r	.	16r	.	8fff\L	.
.	.	16a\LL	.	16cc\LL	.	.	.
.	.	16cc\JJ	.	16ee-\JJ	.	16r	.
.	.	16r	.	16r	.	16eeen\Jk	.
.	.	4r	.	4r	.	16fff\LL	.
.	.	.	.	.	.	16eeen\	.
.	.	.	.	.	.	16fff\	.
.	.	.	.	.	.	16eeen\JJ	.
=96	=96	=96	=96	=96	=96	=96	=96
2r	.	2r	.	4r	.	16eee-\LK	pp
.	.	.	.	.	.	16r	.
.	.	.	.	.	.	16ccc\k	.
.	.	.	.	.	.	16r	.
.	.	.	.	16ee-\LK	pp	16aa\Jk	.
.	.	.	.	16r	.	16r	.
.	.	.	.	16cc\Jk	.	8r	.
.	.	.	.	16r	.	.	.
=97	=97	=97	=97	=97	=97	=97	=97
2r	.	2r	.	8a/	.	16fff\LK	.
.	.	.	.	.	.	16r	.
.	.	.	.	8r	.	16ddd\k	.
.	.	.	.	.	.	16r	.
.	.	.	.	16dd\LK	.	16bb-\Jk	.
.	.	.	.	16r	.	16r	.
.	.	.	.	16b-\Jk	.	8r	.
.	.	.	.	16r	.	.	.
=98	=98	=98	=98	=98	=98	=98	=98
2r	.	16e-\LK	pp	16f\LL	.	16aa\LL	.
.	.	16r	.	16ff\	.	16bb-\	.
.	.	16c\k	.	16ff\	.	16ccc\	.
.	.	16r	.	16ff\JJ	.	16ddd\JJ	.
.	.	16A\k	.	8.ff\L	.	8eee-\L	.
.	.	16r	.	.	.	.	.
.	.	16r	.	.	.	16r	.
.	.	16e-\Jk	.	32een\LL	.	16aa\Jk	.
.	.	.	.	32ff\JJJ	.	.	.
=99	=99	=99	=99	=99	=99	=99	=99
4r	.	16d/LK	.	16f\LL	.	16bb-\LL	.
.	.	16r	.	16ff\	.	16ccc\	.
.	.	16B-/k	.	16ff\	.	16ddd\	.
.	.	16r	.	16ff\JJ	.	16eee-\JJ	.
8r	.	16F/k	.	8.ff\L	.	8fff\L	.
.	.	16r	.	.	.	.	.
16r	.	16r	.	.	.	16r	.
16D\	pp	16F/Jk	.	32een\LL	.	16bb-\Jk	.
.	.	.	.	32ff\JJJ	.	.	.
=100	=100	=100	=100	=100	=100	=100	=100
16E-/LK	.	16F/LL	.	16r	.	16r	.
16r	.	16f/	.	16a\LK	.	16aa\LK	.
16C/k	.	16f/	.	16r	.	16r	.
16r	.	16f/JJ	.	16cc\k	.	16ccc\k	.
16AA/k	.	(8.f\L	.	16r	.	16r	.
16r	.	.	.	16ee-\k	.	16eee-\k	.
16r	.	.	.	16r	.	16r	.
16E-/Jk	.	32en\LL	.	16a\Jk	.	16aa\Jk	.
.	.	32f\JJJ)	.	.	.	.	.
=101	=101	=101	=101	=101	=101	=101	=101
16D/LK	.	16F/LL	.	16r	.	16r	.
16r	.	16f/	.	16b-\LK	.	16bb-\LK	.
16BB-/k	.	16f/	.	16r	.	16r	.
16r	.	16f/JJ	.	16dd\k	.	16ddd\k	.
16FF/k	.	(8.f\L	.	16r	.	16r	.
16r	.	.	.	16ff\k	.	16fff\k	.
16r	.	.	.	16r	.	16r	.
16D/Jk	.	32en\LL	.	16b-\Jk	.	16bb-\Jk	.
.	.	32f\JJJ)	.	.	.	.	.
=102	=102	=102	=102	=102	=102	=102	=102
16E-/LK	<	16F/LL	<	16r	.	16r	<
16r	<	16f/	<	16a\LK	<	16aa\LK	.
16C/k	.	16f/	.	16r	<	16r	<
16r	.	16f/JJ	.	16cc\k	.	16ccc\k	.
16AA/k	.	16f/LL	.	16r	.	16r	.
16r	.	16F/	.	16ee-\k	.	16eee-\k	.
16FF/Jk	.	16F/	.	16r	.	16r	.
16r	.	16F/JJ	.	16a\Jk	.	16aa\Jk	.
=103	=103	=103	=103	=103	=103	=103	=103
4GG-/	f	4G-/	f	4b-\	f	4bb-\	f
(4GG-/	.	(4G-/	.	4g-/	.	4g-/	.
=104	=104	=104	=104	=104	=104	=104	=104
4EE-/	.	4E-/	.	4e-/	.	4e-/	.
4CC/)	.	4C/)	.	4c/	.	4c/	.
=105	=105	=105	=105	=105	=105	=105	=105
(4C/	.	(4E-/	.	[4A-/	.	8.a-/L	.
.	.	.	.	.	.	16g-/Jk	.
8D-\L)	.	8F/L)	.	8A-/L]	.	8f/L	.
(8D\J	.	(8F/J	.	[8B-/J	.	16.b-/L	.
.	.	.	.	.	.	32a-/JJk	.
=106	=106	=106	=106	=106	=106	=106	=106
8E-\)	.	8G-/)	.	8B-/]	.	8g-/	.
4E-\	ff	4G-/	ff	4c-/	ff	4cc-\	ff
8E-\	>	8G-/	>	8B-/	>	8b-\	>
=107	=107	=107	=107	=107	=107	=107	=107
8E-\L	p	8G-\L	p	8A/	.	8a\L	p
8r	.	8r	.	8cc\L	.	8r	.
8r	.	8r	.	8dd-\	.	8r	.
16.e-\L	pp	16.a\L	pp	8cc\J	.	16.gg-\L	pp
32e-\JJk	.	32a\JJk	.	.	.	32gg-\JJk	.
=108	=108	=108	=108	=108	=108	=108	=108
8e-\L	.	8a\L	.	8a\L	.	8gg-\L	.
8r	.	8r	.	8cc\J	.	8r	.
8r	.	8r	.	8dd-\L	.	8r	.
16.e-\L	<	16.g-\L	<	16.cc\L	<	16.aa\L	<
32e-\JJk	.	32g-\JJk	.	32cc\JJk	.	32aa\JJk	.
=109	=109	=109	=109	=109	=109	=109	=109
(4en\	ff	(4g\	ff	4dd-\	ff	[4bb-\	ff
8f\L)	>	8f\L	>	8dd\L	>	16bb-\LL]	>
.	.	.	.	.	.	32aa\L	.
.	.	.	.	.	.	32gg\JJJ	.
8F\J	.	8e-\J)	.	8a\J	.	32ff\LLL	.
.	.	.	.	.	.	32ee-\	.
.	.	.	.	.	.	32dd\	.
.	.	.	.	.	.	32cc\JJJ	.
=110	=110	=110	=110	=110	=110	=110	=110
(16F/LL	p	(16d/LL	p	8b-/L	p	8b-\L	p
16D/	.	16F/)	.	.	.	.	.
16C/	.	16F/	.	8d/	.	8dd\	.
16BB-/JJ)	.	16F/JJ	.	.	.	.	.
(8AA/L	.	(16c/LL	.	8e-/	.	8ee-\	.
.	.	16F/	.	.	.	.	.
8BB-/J)	.	16B-/	.	8d/J	.	8dd\J	.
.	.	16F/JJ)	.	.	.	.	.
=111	=111	=111	=111	=111	=111	=111	=111
(16F\LL	.	(16A/LL	.	8c/L	.	8cc\L	.
16E-\	.	16F/)	.	.	.	.	.
16D\	.	16F/	.	8e-/	.	8ee-\	.
16C\JJ)	.	16F/JJ	.	.	.	.	.
(8BBn/L	.	(16d/LL	.	8f/	.	8ff\	.
.	.	16F/	.	.	.	.	.
8C/J)	.	16c/	.	8e-/J	.	8ee-\J	.
.	.	16F/JJ)	.	.	.	.	.
=112	=112	=112	=112	=112	=112	=112	=112
(16G\LL	.	16B-/LL	.	8d/L	.	8dd\L	.
16F\	.	16B-/	.	.	.	.	.
16E-\	.	16B-/	.	8f/	.	8ff\	.
16D\JJ)	.	16B-/JJ	.	.	.	.	.
(8C#/L	.	(16en\LL	.	8g/	.	8gg\	.
.	.	16B-\	.	.	.	.	.
8D/J)	.	16f\	.	8f/J	.	8ff\J	.
.	.	16B-\JJ)	.	.	.	.	.
=113	=113	=113	=113	=113	=113	=113	=113
(8C/L	.	(16g\LL	.	16f/LL	.	16ff\LL	.
.	.	16B-\)	.	16en/	.	16een\	.
8G/	.	16B-\	.	16d/	.	16dd\	.
.	.	16B-\JJ	.	16c/JJ	.	16cc\JJ	.
8F/	.	(16B-/LL	.	8.f/L	.	8.ff\L	.
.	.	16A/	.	.	.	.	.
8FF/J)	.	16G/	.	.	.	.	.
.	.	16F/JJ)	.	16e-/Jk	.	16ee-\Jk	.
=114	=114	=114	=114	=114	=114	=114	=114
(8BB-/L	.	(16F/LL	.	16e-/LL	.	16ee-\LL	.
.	.	16f/	.	16d/	.	16dd\	.
8D/	.	16B-/	.	16c/	.	16cc\	.
.	.	16f/JJ	.	16B-/JJ	.	16b-\JJ	.
8E-/	.	16c\LL	.	8A/L	.	8a/L	.
.	.	16f\	.	.	.	.	.
8D/J)	.	16B-\	.	8B-/J	.	8b-/J	.
.	.	16f\JJ)	.	.	.	.	.
=115	=115	=115	=115	=115	=115	=115	=115
(8C\L	.	(16A\LL	.	16f/LL	.	16ff\LL	.
.	.	16f\	.	16e-/	.	16ee-\	.
8E-\	.	16a\	.	16d/	.	16dd\	.
.	.	16f\JJ	.	16c/JJ	.	16cc\JJ	.
8F\	.	16g#\LL	.	8Bn/L	.	8bn\L	.
.	.	16f\	.	.	.	.	.
8E-\J)	.	16g#\	.	8c/J	.	8cc\J	.
.	.	16f\JJ)	.	.	.	.	.
=116	=116	=116	=116	=116	=116	=116	=116
(8D\L	.	(16B-\LL	.	16g/LL	.	16gg\LL	.
.	.	16b-\	.	16f/	.	16ff\	.
8F\	.	16f\	.	16e-/	.	16ee-\	.
.	.	16b-\JJ	.	16d/JJ	.	16dd\JJ	.
8G\	.	16en\LL	.	8c#/L	.	8cc#\L	.
.	.	16b-\	.	.	.	.	.
8F\J)	.	16f\	.	8B-/J	.	8dd\J	.
.	.	16b-\JJ)	.	.	.	.	.
=117	=117	=117	=117	=117	=117	=117	=117
(16F\LL	<	8.B-/L	<	8.g/L	<	8.gg\L	<
16En\	<	.	.	.	.	.	.
16D\	.	.	.	.	.	.	.
16C\JJ)	.	16B-/Jk	<	16g/Jk	<	16gg\Jk	<
(8.F\L	.	(16B-/LL	.	8.c/L	.	8.cc\L	.
.	.	16A/	.	.	.	.	.
.	.	16G/	.	.	.	.	.
16E-\Jk)	.	16F/JJ)	.	16c/Jk	.	16cc\Jk	.
=118	=118	=118	=118	=118	=118	=118	=118
(16E-/LL	.	8.A-/L	.	8.f/L	.	8.ff\L	.
16D/	.	.	.	.	.	.	.
16C/	.	.	.	.	.	.	.
16BB-/JJ)	.	16A-/Jk	.	16f/Jk	.	16ff\Jk	.
8.E-\L	.	(16A-/LL	.	8.B-/L	.	8.b-\L	.
.	.	16G/	.	.	.	.	.
.	.	16F#/	.	.	.	.	.
16E-\Jk	.	16G/JJ)	.	16B-/Jk	.	16b-\Jk	.
=119	=119	=119	=119	=119	=119	=119	=119
(8.C/L	.	(16G/LK	.	16f/LK	.	16ff\LK	.
.	.	8A/	.	8e-/	.	8ee-\	.
16D/Jk)	.	16B-/Jk)	.	16d/Jk	.	16dd\Jk	.
(8E-\L	.	(16Bn\LL	.	16g/LL	.	16dd\LL	.
.	.	16c\	.	16g/	.	16cc\	.
8F\J)	.	16d\	.	16f/	.	16b-\	.
.	.	16e-\JJ)	.	16c/JJ	.	16a\JJ	.
=120	=120	=120	=120	=120	=120	=120	=120
24BB-/LL	.	24d/LL	.	24d/LL	.	24b-\LL	.
24BB-/	.	24F/	.	24d/	.	24b-\	.
24BB-/	.	24F/	.	24d/	.	24b-\	.
24BB-/	.	24F/	.	24d/	.	24b-\	.
24BB-/	.	24F/	.	24d/	.	24b-\	.
24BB-/JJ	.	24F/JJ	.	24d/JJ	.	24b-\JJ	.
24BB-/LL	.	24F/LL	.	24d/LL	.	24b-/LL	.
24E-/	.	24G/	.	24e-/	.	24g/	.
24E-/	.	24G/	.	24e-/	.	24g/	.
24E-/	.	24G/	.	24e-/	.	24g/	.
24E-/	.	24G/	.	24e-/	.	24g/	.
24E-/JJ	.	24G/JJ	.	24e-/JJ	.	24g/JJ	.
=121	=121	=121	=121	=121	=121	=121	=121
24E-/LL	.	24G/LL	.	24e-/LL	.	24g\LL	.
24C/	.	24c/	.	24g/	.	24ee-\	.
24C/	.	24c/	.	24g/	.	24ee-\	.
24C/	.	24c/	.	24g/	.	24ee-\	.
24C/	.	24c/	.	24g/	.	24ee-\	.
24C/JJ	.	24c/JJ	.	24g/JJ	.	24ee-\JJ	.
24C/LL	.	24c\LL	.	24g\LL	.	24ee-\LL	.
24BB-/	.	24g\	.	24ee-\	.	24ccc\	.
24BB-/	.	24g\	.	24ee-\	.	24ccc\	.
24BB-/	.	24g\	.	24ee-\	.	24ccc\	.
24BB-/	.	24g\	.	24ee-\	.	24ccc\	.
24BB-/JJ	.	24g\JJ	.	24ee-\JJ	.	24ccc\JJ	.
=122	=122	=122	=122	=122	=122	=122	=122
8AA/	f	8f\	f	8ee-\	f	24ccc\LL	f
.	.	.	.	.	.	24bb-\	.
.	.	.	.	.	.	24aa\	.
8r	.	8r	.	8r	.	24gg\	.
.	.	.	.	.	.	24ff\	.
.	.	.	.	.	.	24ee-\JJ	.
4r	.	4r	.	4r	.	24dd/LL	.
.	.	.	.	.	.	24cc/	.
.	.	.	.	.	.	24b-/	.
.	.	.	.	.	.	24a/	.
.	.	.	.	.	.	24g/	.
.	.	.	.	.	.	24f/JJ	.
=123	=123	=123	=123	=123	=123	=123	=123
2r	.	2r	.	2r	.	4en/	>
.	.	.	.	.	.	4e-/	.
=124	=124	=124	=124	=124	=124	=124	=124
2r	.	2r	.	8B-/L	p	8d/L	p
.	.	.	.	8d/	.	8f/	.
.	.	.	.	8e-/	.	8g-/	.
.	.	.	.	8d/J	.	8f/J	.
=125	=125	=125	=125	=125	=125	=125	=125
(8B-\L	p	(8d\L	p	8.dd\L	.	8.ff\L	.
8d\	.	8f\	.	.	.	.	.
.	.	.	.	32cc\LL	.	32ee-\LL	.
.	.	.	.	32b-\JJJ	.	32dd\JJJ	.
8e-\	.	8g-\	.	8a/L	.	8cc\L	.
8d\J)	.	8f\J)	.	8b-/J	.	8dd\J	.
=126	=126	=126	=126	=126	=126	=126	=126
(8.B-\L	.	(8.g\L	.	8ee-\L	.	8gg\L	.
.	.	.	.	8gg\	.	8bb-\	.
32A-\LL	.	32f\LL	.	.	.	.	.
32G\JJJ)	.	32e-\JJJ)	.	.	.	.	.
(8F\L	.	(8d\L	.	8aa-\	.	8ccc-\	.
8G\J)	.	8e-\J)	.	8gg\J	.	8bb-\J	.
=127	=127	=127	=127	=127	=127	=127	=127
(8E-\L	.	(8G/L	.	8.bb-\L	.	8.ggg\L	.
8G\	.	8B-/	.	.	.	.	.
.	.	.	.	32aa-\LL	.	32fff\LL	.
.	.	.	.	32gg\JJJ	.	32eee-\JJJ	.
8A-\	.	8c-/	.	8ff\L	.	8ddd\L	.
8G\J)	.	8B-/J)	.	8gg\J	.	8eee-\J	.
=128	=128	=128	=128	=128	=128	=128	=128
(8A\L	<	8c\L	<	8gg-\L	<	&(8eee-\L&)	<
8B-\	<	8d\J	<	[8ff\J	<	[8ddd\J	<
8E-\	.	16g\LL	.	16ff\LL]	.	16ddd\LL]	.
.	.	16g\	.	16ee-\	.	16ccc\	.
8F\J)	.	16f\	.	16dd\	.	16bb-\	.
.	.	16e-\JJ	.	16cc\JJ	.	16aa\JJ	.
=129	=129	=129	=129	=129	=129	=129	=129
24BB-/LL	.	24d/LL	.	24b-/LL	.	24bb-\LL	.
24BB-/	.	24F/	.	24d/	.	24b-\	.
24BB-/	.	24F/	.	24d/	.	24b-\	.
24BB-/	.	24F/	.	24d/	.	24b-\	.
24BB-/	.	24F/	.	24d/	.	24b-\	.
24BB-/JJ	.	24F/JJ	.	24d/JJ	.	24b-\JJ	.
24BB-/LL	.	24F/LL	.	24d/LL	.	24b-/LL	.
24E-/	.	24G/	.	24e-/	.	24g/	.
24E-/	.	24G/	.	24e-/	.	24g/	.
24E-/	.	24G/	.	24e-/	.	24g/	.
24E-/	.	24G/	.	24e-/	.	24g/	.
24E-/JJ	.	24G/JJ	.	24e-/JJ	.	24g/JJ	.
=130	=130	=130	=130	=130	=130	=130	=130
24E-/LL	.	24G/LL	.	24e-/LL	.	24g\LL	.
24C/	.	24c/	.	24g/	.	24ee-\	.
24C/	.	24c/	.	24g/	.	24ee-\	.
24C/	.	24c/	.	24g/	.	24ee-\	.
24C/	.	24c/	.	24g/	.	24ee-\	.
24C/JJ	.	24c/JJ	.	24g/JJ	.	24ee-\JJ	.
24C/LL	.	24c\LL	.	24g/LL	.	24ee-\LL	.
24BB-/	.	24e-\	.	24g-/	.	24ccc\	.
24BB-/	.	24e-\	.	24g-/	.	24ccc\	.
24BB-/	.	24e-\	.	24g-/	.	24ccc\	.
24BB-/	.	24e-\	.	24g-/	.	24ccc\	.
24BB-/JJ	.	24e-\JJ	.	24g-/JJ	.	24ccc\JJ	.
=131	=131	=131	=131	=131	=131	=131	=131
24BB-/LL	.	24e-\LL	.	24g-/LL	.	24ccc\LL	.
24AA/	.	24c\	.	24f/	.	24eee-\	.
24AA/	.	24c\	.	24f/	.	24eee-\	.
24AA/	.	24c\	.	24f/	.	24eee-\	.
24AA/	.	24c\	.	24f/	.	24eee-\	.
24AA/JJ	.	24c\JJ	.	24f/JJ	.	24eee-\JJ	.
24AA/LL	.	24c/LL	.	24f/LL	.	24eee-\LL	.
24GG/	.	24B-/	.	24b-/	.	24eee-\	.
24GG/	.	24B-/	.	24b-/	.	24eee-\	.
24GG/	.	24B-/	.	24b-/	.	24eee-\	.
24GG/	.	24B-/	.	24b-/	.	24eee-\	.
24GG/JJ	.	24B-/JJ	.	24b-/JJ	.	24eee-\JJ	.
=132	=132	=132	=132	=132	=132	=132	=132
24GG-/LL	ff	24A/LL	ff	24a/LL	ff	24eee-\LL	ff
24GG-/	.	24A/	.	24c/ 24e-/	.	24ccc\	.
24GG-/	.	24A/	.	24c/ 24e-/	.	24aa\	.
24GG-/	.	24A/	.	24c/ 24e-/	.	24ee-\	.
24GG-/	.	24A/	.	24c/ 24e-/	.	24cc\	.
24GG-/JJ	.	24A/JJ	.	24c/JJ 24e-/	.	24a\JJ	.
24GG-/LL	.	24A/LL	.	24c/LL 24e-/	.	24ee-/LL	.
24GG-/	.	24A/	.	24c/ 24e-/	.	24cc/	.
24GG-/	.	24A/	.	24c/ 24e-/	.	24a/	.
24GG-/	.	24A/	.	24c/ 24e-/	.	24e-/	.
24GG-/	.	24A/	.	24c/ 24e-/	.	24c/	.
24GG-/JJ	.	24A/JJ	.	24c/JJ 24e-/	.	24A/JJ	.
=133	=133	=133	=133	=133	=133	=133	=133
2FF/	f	8F/ 8c/	f	8c/ 8a/	f	8cc\ 8aa\	f
.	.	8r	.	8r	.	8r	.
.	.	4r	.	4r	.	4r	.
=134	=134	=134	=134	=134	=134	=134	=134
4EEn/	>	2r	.	2r	.	2r	.
4EE-/	.	.	.	.	.	.	.
=135	=135	=135	=135	=135	=135	=135	=135
(8DD/L	pp	16B-/LK	pp	16B-/LK	pp	4r	.
.	.	8B-/	.	8b-/	.	.	.
8FF/	.	.	.	.	.	.	.
.	.	8B-/	.	8b-/	.	.	.
8GG-/	.	.	.	.	.	8r	.
.	.	8B-/	.	8b-/	.	.	.
8FF/J)	.	.	.	.	.	8dd\	pp
.	.	[16B-/Jk	.	[16b-/Jk	.	.	.
=136	=136	=136	=136	=136	=136	=136	=136
(8GG-/L	.	16B-\LK]	.	16b-/LK]	.	8ee-\L	.
.	.	8e-\	.	8g-/	.	.	.
8BB-/	.	.	.	.	.	8r	.
.	.	8e-\	.	8g-/	.	.	.
8C-/	.	.	.	.	.	8r	.
.	.	8e-\	.	8g-/	.	.	.
8BB-/J)	.	.	.	.	.	8gg-\J	.
.	.	[16e-\Jk	.	16g-/Jk	.	.	.
=137	=137	=137	=137	=137	=137	=137	=137
(8AA\L	.	16e-\LK]	.	16f/LK	.	8ff\L	.
.	.	8e-\	.	8f/	.	.	.
8A\J	.	.	.	.	.	8r	.
.	.	(16e-\Jk	.	[16f/Jk	.	.	.
8B-\L	.	16d-\LK)	.	16f/LK]	.	8r	.
.	.	8d-\	.	8b-/	.	.	.
8En\J)	.	.	.	.	.	8bb-\J	.
.	.	(16d-\Jk	.	[16b-/Jk	.	.	.
=138	=138	=138	=138	=138	=138	=138	=138
(8F/L	.	16c\LK)	.	16b-\LK]	.	8cc\L	.
.	.	8c\	.	8b-\	.	.	.
8En/	.	.	.	.	.	8r	.
.	.	(16c\Jk	.	16b-\Jk	.	.	.
8F/	.	16e-\LK)	.	16a/LK	.	8r	.
.	.	8e-\	.	8a/	.	.	.
8FF/J)	.	.	.	.	.	8ff\J	.
.	.	16e-\Jk	.	16a/Jk	.	.	.
=139	=139	=139	=139	=139	=139	=139	=139
16BB-/LL	pp	(8d/L	pp	8b-\L	pp	8b-\	.
16BB-/	.	.	.	.	.	.	.
16BB-/	.	8B-/	.	8dd\	.	8r	.
16BB-/JJ	.	.	.	.	.	.	.
16BB-/LL	.	8A/	.	8ee-\	.	4r	.
16BB-/	.	.	.	.	.	.	.
16BB-/	.	8B-/J)	.	8dd\J	.	.	.
16BB-/JJ	.	.	.	.	.	.	.
=140	=140	=140	=140	=140	=140	=140	=140
16BB-/LL	.	4.E-/	.	4.a/	.	8.ccc\L	.
16BB-/	.	.	.	.	.	.	.
16BB-/	.	.	.	.	.	.	.
16BB-/JJ	.	.	.	.	.	32bb-\LL	.
.	.	.	.	.	.	32aa\JJJ	.
16BB-/LL	.	.	.	.	.	16gg\LL	.
16BB-/	.	.	.	.	.	16ff\	.
16BB-/	.	8e-\	.	8a/	.	16ff\	.
16BB-/JJ	.	.	.	.	.	16ff\JJ	.
=141	=141	=141	=141	=141	=141	=141	=141
16BB-/LL	.	(8d\L	.	8b-\L	.	8ff\	.
16BB-/	.	.	.	.	.	.	.
16BB-/	.	32e-\LL	.	32a\LL	.	8r	.
.	.	32d\	.	32b-\	.	.	.
16BB-/JJ	.	32c\	.	32cc\	.	.	.
.	.	32B-\JJJ)	.	32dd\JJJ	.	.	.
16BB-/LL	.	(8A/L	.	8ee-\L	.	4r	.
16BB-/	.	.	.	.	.	.	.
16BB-/	.	8B-/J)	.	8dd\J	.	.	.
16BB-/JJ	.	.	.	.	.	.	.
=142	=142	=142	=142	=142	=142	=142	=142
16BB-/LL	.	4.E-/	.	4.a/	.	16ccc\LL	.
16BB-/	.	.	.	.	.	32bbn\L	.
.	.	.	.	.	.	32ccc\JJJ	.
16BB-/	.	.	.	.	.	32ddd\LLL	.
.	.	.	.	.	.	32ccc\	.
16BB-/JJ	.	.	.	.	.	32bb-\	.
.	.	.	.	.	.	32aa\JJJ	.
16BB-/LL	.	.	.	.	.	16gg\LL	.
16BB-/	.	.	.	.	.	16ff\	.
16BB-/	.	8E-/	.	8a/	.	16ff\	.
16BB-/JJ	.	.	.	.	.	16ff\JJ	.
=143	=143	=143	=143	=143	=143	=143	=143
8BB-\L	.	8D/L	.	8b-\L	.	8ff\L	.
8r	.	8r	.	8dd\	.	8bb-\	.
8r	.	8r	.	8ee-\	.	8aa\	.
16r	.	16r	.	8dd\J	.	8bb-\J	.
16B-\Jk	.	16d/Jk	.	.	.	.	.
=144	=144	=144	=144	=144	=144	=144	=144
(8c\L	.	(8e-\L	.	8r	.	8r	.
8B-\)	.	8d\)	.	8bb-\L	.	8ddd\L	.
8r	.	8r	.	8aa\	.	8ccc#\	.
16r	.	16r	.	8bb-\J	.	8ddd\J	.
16B-\Jk	.	16d\Jk	.	.	.	.	.
=145	=145	=145	=145	=145	=145	=145	=145
(8c\L	.	(8e-\L	.	8r	.	8r	.
8B-\)	.	8d\)	.	8ddd\L	.	8fff\L	.
8r	.	8r	.	8ccc#\	.	8eeen\	.
16r	.	16r	.	8ddd\J	.	8fff\J	.
16B-\Jk	.	16d\Jk	.	.	.	.	.
=146	=146	=146	=146	=146	=146	=146	=146
8F\	p	8c\L	p	8r	.	8r	.
8r	.	8r	.	8aa\L	.	8eee-\L	p
8F#\	.	8c\J	.	8r	.	8r	.
8r	.	8r	.	8ee-\J	.	8aa\J	.
=147	=147	=147	=147	=147	=147	=147	=147
8G\	.	8B-/	.	8r	.	8r	.
8r	.	8r	.	8dd\	.	8bb-\	.
4r	.	4r	.	4r	.	4r	.
=148	=148	=148	=148	=148	=148	=148	=148
8E-\	.	8r	.	8r	.	8r	.
8r	.	8e-\	.	8g/	.	8gg\	.
4r	.	4r	.	4r	.	4r	.
=149	=149	=149	=149	=149	=149	=149	=149
8F\	.	8r	.	8r	.	8r	.
8r	.	8c\	.	8e-/	.	8a/	.
4r	.	4r	.	4r	.	4r	.
=150	=150	=150	=150	=150	=150	=150	=150
8BB-/	.	8B-/	.	8d/	.	8b-\	.
8r	.	8r	.	8r	.	8r	.
8BB-/	pp	8F/	pp	8B-/	pp	8d/	pp
8r	.	8r	.	8r	.	8r	.
=151	=151	=151	=151	=151	=151	=151	=151
8BB-/	.	8D/	.	8B-/	.	8B-/	.
8r	.	8r	.	8r	.	8r	.
4r	.	4r	.	4r	.	4r	.
==	==	==	==	==	==	==	==
*-	*-	*-	*-	*-	*-	*-	*-
!!!ENC: Craig Stuart Sapp
!!!END: 2006/03/11/
